X:1
T:Duo Concertant for Two Flutes
T:Duo Concertant 
T:Louis François Philippe Drouët (1792-1873)
T:for Two Flutes 
C:Drouët, Louis François Philippe (1792-1873)
%%score 1 2
L:1/8
Q:1/4=100
M:4/4
K:C
V:1 treble nm="Flute 1" snm="Fl. 1"
V:2 treble nm="Flute 2" snm="Fl. 2"
V:1
"^Allegro vivo\n"!f! .g>.g | e'4 (d'c'ba) | (a2 g2- ga)(gf) | (eg) c'2 z (^gaf) | d4 z2 .=g>.g | %5
 e'4 (d'c'ba) |!>(! (^g4 a)!>)!(ea=g) |!<(! (^fg/f/ ^e/f/a/c'/)!<)! (e'2 d'c') | %8
 b4- !breath!b!>(!(gab)!>)! |!p! (c'e'd'c' bagf) | (ef^fg b)(gab) | (c'e'd'c' bag=f) | e4 (edfa) | %13
 g4 (^GA^AB | c2) z2 z4 |"^A"!mf! (cgec' bagf) | (fc)(ec) (efed) | c2 (EG) c2 F2 | (GB)(dB) G2 z2 | %19
 (ceag fedc) | (_BGEG) B4 | A6 !tenuto!.F2 | !tenuto!.E2 !tenuto!.G2 (c3 _B) | A2 (FA cfaf) | %24
 (eg)(^ce) !tenuto!.A2 !tenuto!.c2 | (d^cBA) G4 | (^FAd^f) !tenuto!.g2 !tenuto!.G2 | %27
 ^FD !>!A2- A.B !>!c2- | c^g !>!a2- a.b c'2 |"^B" (e'd'c'b a^gba | g^f)!>(!(^cd efga)!>)! | %31
!p! b4 (.b2 .b2) | (d'4- (3d'^c'd' (3e'd').b | a4- (3a(.^c.d (3.e.^e.^f) | g4 z2!mp! .d>g | %35
 b4 (b2 a>)g |!<(! (e'2- (3e'd'^c' (3d')!<)!.^a.b (3.^f.g.e | %37
 (d>^f) (a/g/f/).a/ (c'/b/a/).c'/ (e'>d') | g4 z (.g.g.g) | g4!<(! (3.g.a.b (3.c'.d'.e'!<)! | %40
!>(! (d'3 b)!>)! .g (.g.g.g) | g4!<(! (3.g.a.b (3.c'.d'.e'!<)! |!>(! (d'4 g'2)!>)! z2 | %43
 (3z .a.b (3(d'c').e !tenuto!.g2 !tenuto!.^f2 | %44
"^C" !tenuto!g2!f! (d'/^c'/d'/e'/ d'/c'/d'/=c'/ b/c'/b/a/) | %45
 (!tenuto!gd/).B/ (G/A/G/^F/ G/A/B/c/ d/e/^f/g/) | %46
 !breath!a2 (!>!^F/A/c/A/ !>!E/G/c/G/ !>!_E/G/c/G/) | %47
 .D(d/e/ ^f/g/a/b/ c'/b/c'/^c'/ d'/c'/d'/=c'/) | (b>d' c'/b/a/g/ !tenuto!^ff/c'/ b/a/g/f/) | %49
 (!tenuto!ed/b/ a/g/^f/e/) (!>!d/c/).a/.g/ .f/.e/.d/.c/ | %50
 B2!<(! (G/A/B/c/ d/e/^f/g/ a/b/c'/^c'/)!<)! | %51
 (!>!d'/b/).g/.d/ (!>!b/g/).d/.B/!<(! (G/B/d/c/ B/A/G/=F/)!<)! |!ff! .E !>!G2 .c .e !>!g2 .c' | %53
 e'4 g'4 | (d/e/d/^c/ d/^d/e/^e/!<(! ^f/g/^g/a/ ^a/b/=c'/b/)!<)! | !trill(!Ta8({ga)} | %56
"^D" g2 z2 z4 |!p! (GDdB) (GDdB) | (GBdg) b2 z2 | (D^FAd) ^f2 (c2 | Bdgd) .B2 z2 | %61
!mp! (GBdB) !tenuto!.G2 !tenuto!.D2 | !tenuto!.G2 !tenuto!.B2 z2 (B>G) | %63
!>(! (^F4 A2)!>)! !tenuto!.c2 | (Bd^cd) B2 z2 | !tenuto!.B2 !tenuto!.G2 !tenuto!.c2 !tenuto!.G2 | %66
 !tenuto!.B2 !tenuto!.G2 !tenuto!.B2 z2 | z (Bcd) (e3 c) | (Bdgd) (bgdB) | c2 z2 (Bdcd) | %70
"^E" !tenuto!.B2!f! !tenuto!.G2 !tenuto!.B2 !tenuto!.d2 | !tenuto!.B2 z2 (B4 | %72
 c2) !tenuto!.a2 !tenuto!.c'2 !tenuto!.c'2 | (c'>b a/g/^f/e/) !tenuto!.d2 z2 | %74
 !tenuto!G2!>(! (GA/B/)!>)! (dc)!>(! (^FG/A/)!>)! | (cB)!>(! (E^F/G/)!>)! !tenuto!.A2 !tenuto!.D2 | %76
 !tenuto!G2 z2!ff! !tenuto!.G4 | !tenuto!.B4 !tenuto!.b4 | %78
!ff! !tenuto!.c'2 !tenuto!.e'2 !tenuto!.c2 !tenuto!.e2 | .c.e.g.c' .^c.e.g._b | %80
 !tenuto!=b2 z2 z2 G2 |!<(! (D/E/^F/G/ ^G/A/^A/B/)!<)! !trill(!Tc4({Bc)} | %82
"^F" B2 z2 z!p! (.g.g.g) | g4 (3.g.a.b (3.c'.d'.e' |!>(! (d'4 g'2)!>)! z2 | %85
 (DG) (B2- Bc)!<(!(E^F)!<)! |!>(! (A4 G2)!>)! z2 | z!p! (GAB) c4 |!>(! (Bd^fg)!>)! b2 z2 | %89
!ff! .d.d'/.b/ .g/.d/.B/.G/ (D/^F/).A/.c/ (.d/.^f/).a/.f/ | %90
 .g.d'/.b/ .g/.d/.B/.G/ (D/^F/).A/.c/ (d/^f/).a/.f/ | .g2 .b2 .g2 :| z2 |!ff! .G.B.G.E .^F.^D.F.B | %94
 .E.G.B.E .^F.^D.B.=D | .E !>!G2 .B .e !>!g2 .b | %96
!>(! !tenuto!.e'2 !tenuto!.d'2 !tenuto!.g2 !tenuto!.e2!>)! | %97
!ff! .f.c'/.a/ .f/.c/.A/.F/ (E/G/)._B/.c/ (e/g/).c'/._b/ | %98
 .a.c'/.a/ .f/.c/.A/.F/ (E/G/)._B/.c/ .e/.g/.c'/.e/ | .f2 .F>.F _B4 | (A_BAG) F z!f! .a>.a | %101
 d'4 (c'_bag) | (g2 f2- f_e)(dc) | !breath!_B2 !tenuto!.^f2 !tenuto!.g2 (a_b) |"^G" c'4 (_bagf) | %105
 !tenuto!.d2 !tenuto!._B2 !tenuto!.e2 (fg) |!>(! a4 (gfed)!>)! | %107
!p! !breath!.^G !>!B2 .e .^g !>!b2 .e' | !tenuto!.A2 !tenuto!.c2 !tenuto!.e2 !tenuto!.c2 | %109
 z !>!^F2 .A .d !>!^f2 .a |!<(! !tenuto!.b2 !tenuto!.g2 !tenuto!.d2 !tenuto!.B2!<)! | %111
!mp! .A !>!^c2 .e .a !>!^c'2 .e' | !tenuto!.d'2 !tenuto!.^f2 !tenuto!.a2 !tenuto!.d2 | %113
 !tenuto!.^f2 !tenuto!.d2 !tenuto!.f2 !tenuto!.D2 | %114
 !tenuto!.E2 !tenuto!.A2"_cresc." !tenuto!.^c2 !tenuto!.f2 | %115
 !tenuto!.g2 !tenuto!.^c2 !tenuto!.e2 !tenuto!.A2 | %116
 !tenuto!.d2 !tenuto!.^f2 !tenuto!.a2 !tenuto!.=c2 | %117
 !tenuto!._B2 !tenuto!.A2 !tenuto!.G2 !tenuto!.D2 |"^H"!f! .G !>!_B2 !>!d- d !>!^f2 !>!g- | %119
 g !>!a2 !>!_b- b !>!g2 !>!e- | e !>!d2 !>!^c- c !>!e'2 !>!d'- | d' !>!^c'2 !>!_b- b !>!a2 .g | %122
!>(! (=fdAF) D2!>)! z2 | z!p! (.F.F.F) F2 D2 |!>(! (A2 ^c2)!>)! .e!mp! (.A.A.A) | %125
 A4!<(! (3.A.B.^c (3.d.e.f!<)! |!>(! (e4 a)!>)!!<(! (.^a.a.a)!<)! | %127
"^I"!mf! (b=a).a.a .^g!<(!(.g.g.g)!<)! |!>(! (a=g).g.g!>)! .g!<(!(.^f.f.f)!<)! | %129
"_dim." (g=f).f.f (fd).d.d | (dB).B.B (Bd).d.d |!p! !tenuto!f2 z2 z4 |!mf! (cgec' bagf) | %133
 (fc)(ec) (efed) | c2 (EG) c2 F2 | (GB)(dB) G2!f! .g>.g | e'4 (d'c'ba) |!>(! (^g4 a)!>)!(ea=g) | %138
!<(! (^fg/f/ ^e/f/a/c'/)!<)! (e'2 d'c') | b4- !breath!b!>(! (gab)!>)! |!p! (c'e'd'c' bagf) | %141
 (ef^fg b)(gab) | (c'e'd'c' bag=f) | e4 (edfa) | g4 (^GA^AB) | .c.=G !>!e2-"_cresc." e.c !>!g2- | %146
 g.e !>!c'2- c'.g.e'.d' |"^K""_dim." .c'.b.a.g .f.e.d.c | B2 z2 z4 |!p! (cG^FG) (cGcG) | %150
 (e(E)Gc) e2 z2 | (3(.f.e.d (3.c.B.A) !tenuto!.G2 !tenuto!.F2 | (EGcG) e2 z2 |!p! (cGEG) (cGEG) | %154
 (cGEG) c2 z2 | (F4 D2) (Bf) | (eEGc) e2 z2 | z (EFG) !tenuto!.A2 !tenuto!.F2 | (EGcG) e2 z2 | F8 | %160
 (EGcG) (ecGE) | .F2- .F2 (EG)(FG) |"^L" !tenuto!E2!f! !tenuto!.e2 !tenuto!.c2 !tenuto!.G2 | %163
 !tenuto!.E2 z2 (e4 | f2) !tenuto!.d2 !tenuto!.B2 !tenuto!.d2 | !tenuto!.G2 z2 (B4 | %166
 c2)!>(! (cd/e/)!>)! f2!>(! (Bc/d/)!>)! | e2!>(! (AB/c/)!>)! d2!>(! (GA/B/)!>)! | c2 z2 z4 | %169
!ff! !tenuto!E4 !tenuto!.G2 !tenuto!._B2 | !tenuto!.A2 !tenuto!.F2 !tenuto!.A2 !tenuto!.F2 | %171
 .a.f.c'.a .f.c.A.F | !tenuto!E2 z2 z2 !tenuto!c'2 | %173
!<(! (b/c'/d'/c'/ b/a/g/^f/)!<)! !trill(!T=f4({ef)} |"^M" e2!>(! (^fg) (ag)(c'g)!>)! | %175
!p! e'4 .e'2- .e'2 | (g'4- (3g'^f'g' (3a'g').e' |!>(! .d'2- .d'2!>)! (3z (.^f.g (3.a.b.c') | %178
 c'4 z2!mp! (6:4:6(g/a/g/^f/g/c'/) | e'4 (e'2 d'>)c' | %180
!<(! (a'2- (3a'g'^f' (3g')!<)!.^d'.e' (3.b.c'.a | %181
 (6:4:6(g/a/g/^f/g/b/) (d'/c'/b/).d'/ (=f'/e'/d'/).f'/ (a'>g') | c'4 z!<(! (.c'.c'.c')!<)! | %183
 c'4- (3c'.b.d' (3.c'.b.a |!>(! (g3 e)!>)! .c!<(! (.c'.c'.c')!<)! | %185
 .c'!>(!(^ga)!>)!!>(!(e (3f)!>)!.c'.b (3(d'c').a |!>(! (^f4 g2)!>)! z2 | %187
"^N" (3z .^c'.d' (3(ae').d' !tenuto!.=c'2 !tenuto!.b2 | %188
 !breath!!tenuto!c'2!f! (g/^f/g/a/ g/f/g/=f/ e/f/e/d/) | %189
 (cd/e/ f/g/a/b/ c'/)(g/^f/g/ a/b/c'/^c'/) | d'2 (!>!=F/G/B/G/ !>!D/G/B/G/ !>!F/G/B/G/) | %191
 (D/E/F/^F/ G/A/B/c/) (d/e/=f/^f/ g/f/g/=f/) | (e>g f/e/d/c/ !tenuto!BA/g/ e/d/c/B/) | %193
 (AG/)(e'/ d'/c'/b/a/) (!>!g/f/).d'/.c'/ .b/.a/.g/.f/ | e2!<(! (E/F/G/A/ B/c/d/e/ f/g/a/b/)!<)! | %195
 (!>!c'/e'/).c'/.g/ (!>!e/c'/).g/.e/!<(! (c/g/e/c/ G/c/e/g/)!<)! |!ff! .a !>!F2 .A .c !>!f2 .a | %197
 c'2 f'2 a'4 | (g/a/g/^f/ g/^g/a/^a/!<(! b/c'/^c'/d'/ ^d'/e'/=f'/e'/)!<)! | !trill(!T=d'8({c'd')} | %200
"^O" c'2 (c'>g) e2 z2 | z!p! (.A.A.A) F4 | EF/.G/ .A/.B/.c/.d/ .e!>(!(egc') | %203
 e'2!>)! z2 !tenuto!.E2 !tenuto!.F2 |!>(! (F2 G2)!>)! .E!p! (.c.c.c) | c4 (3.c.d.e (3.f.g.a | %206
!>(! (g2 c'e') g'2!>)! z2 |!ff! .g.e'/.d'/ .c'/.b/.a/.g/ (!>!^f/g/).a/.g/ (!>!g/=f/).d/.B/ | %208
 .c.e'/.d'/ .c'/.b/.a/.g/ (!>!^f/g/).a/.g/ (!>!g/=f/).d/.B/ | .c2 .e'2 .c'2 |] %210
V:2
 z2 |!mf! (cegc' bagf) | (fc)(ec) (efed) | (cGEG) c z F2 | (GB)(dB) G2 z2 | (ceag fedc) | %6
 (Bded) !tenuto!.c2 !tenuto!.^c2 | .d2 .D2 z2 .^f2 | .g!>(!(GBd)!>)!!p! (=f4 | e4 d4 | c4) (f4 | %11
 e4 d4) | (cBAG) F4 | (EGce) f4 | .e!<(!(G/^F/ G/A/B/c/ d/e/=f/g/ a/b/c'/d'/)!<)! | %15
!f! e'4 (d'c'ba) | (a2 g2- g)(agf) | (eg) c'2 z (^gaf) | d4 z2 .=g>.g | e'4 (d'c'ba) | %20
 (a2 g2- g)(cde) | (fga_b) (=bc'd'c') | (^fg) _b2- b(bag) | (=fa) c'4 !tenuto!.c'2 | %24
 ^c'2 e'2- e'(5:4:5(g/4a/4g/4^f/4g/4 =ba) | ^f4 (fegb) | a4 (^ABc^c) | d2 z .^F ^f2 z .a | %28
 d2 z ^F ^f2 z .A | ^F2 z2 z4 | z2 z2 z4 |!p! (GBdB) (GBdg) | (bgdB) G2 g2 | (^fdA^F) D2 c2 | %34
 (Bd^cd) B2 z2 |!mp! (GgdB)!<(! G2 !tenuto!.B2!<)! |!>(! (c4 B3)!>)! .G | %37
 ^F2 z2 !tenuto!.A2 !tenuto!.c2 | B2 (d>c) B2 z2 | %39
 !tenuto!.B2 !tenuto!.G2 !tenuto!.c2 !tenuto!.G2 | !tenuto!.B2 !tenuto!.G2 !tenuto!.B2 z2 | %41
 z (GAB) !tenuto!.c2 !tenuto!.G2 | !tenuto!.B2 !tenuto!.G2 !breath!.B (GAB) | c4 (Bdcd) | %44
 !tenuto!.B2!f! !tenuto!.B2 !tenuto!.G2 !tenuto!.d2 | !tenuto!.B2 z2 !tenuto!.G2 !tenuto!.B2 | %46
 !tenuto!.c2 !tenuto!.c2 !tenuto!.c'2 !tenuto!.c'2 | !tenuto!c'2 (A>^F) !tenuto!.D2 !tenuto!.F2 | %48
 !breath!!tenuto!G2!>(! (GA/B/)!>)! c2!>(! (^FG/A/)!>)! | B2!>(! (E^F/G/)!>)! A2 !tenuto!.D2 | %50
 !tenuto!.G2 z2!ff! !tenuto!.G4 | !tenuto!.B4 !tenuto!.d4 | %52
 !tenuto!.c2 !tenuto!.e2 !tenuto!.c2 !tenuto!.e2 | .g.e.c'.g .e.g.e.c | %54
 !tenuto!B2 z2 z2 !tenuto!G2 |!<(! (D/E/^F/G/ ^G/A/^A/B/)!<)! !trill(!Tc4({Bc)} | %56
 B2!f!!>(! (DG Bd^fg)!>)! | b4 (.b2 .b2) | (d'4- (3d'^c'd' (3e'd').b | a4- (3a(.^c.d (3.e.^e.^f) | %60
 g4 z2!mp! .d>.g | b4 b2 (3.b.a.g |!<(! (e'2- (3e'd'^c' (3d')!<)!.^a.b (3.^f.g.e | %63
 (d/^c/d/^f/) (a/g/f/).a/ (=c'/b/a/).c'/ (e'>d') | g4 z (.g.g.g) | g4!<(! (3gab (3c'd'e'!<)! | %66
!>(! (d'3 b) !breath!.g!>)! (.g.g.g) | g4 (3gab (3c'd'e' |!>(! (d'4 g'2)!>)! z2 | %69
 (3z .a.b (3(d'c')e !tenuto!.g2 !tenuto!.^f2 | %70
 !breath!!tenuto!g2!f! (d'/^c'/d'/e'/ d'/c'/d'/=c'/ b/c'/b/a/) | %71
 (!tenuto!gd/).B/ (G/D/G/B/ d/B/d/g/) (b/g/)(d'/b/) | a2 (!>!^F/A/c/A/ !>!E/G/c/G/ !>!_E/G/c/G/) | %73
 .D(d/e/ ^f/g/a/b/ c'/b/c'/^c'/ d'/e'/d'/=c'/) | (b>d' c'/b/a/g/ !tenuto!^fe/c'/ b/a/g/f/) | %75
 (!tenuto!ed/b/ a/g/^f/e/) (!>!d/c/).c'/.a/ .f/.d/.e/.c/ | %76
 B2!<(! (G/A/B/c/ d/e/^f/g/ a/b/c'/^c'/)!<)! | %77
 (!>!d'/b/).g/.d/ (!>!b/g/).d/.B/!<(! (G/B/d/c/ B/A/G/=F/)!<)! | .E !>!G2 .c .e !>!g2 .c' | %79
 e'4 g'4 | (d/e/d/^c/ d/^d/e/^e/!<(! ^f/g/^g/a/ ^a/b/=c'/b/)!<)! | !trill(!Ta8({ga)} | %82
!>(! (gdBd)!>)! G2 z2 | z!p! (.B.B.B) c4 |!>(! (^ABdg)!>)! b2 z2 | %85
 z2 (DG) !tenuto!.^F2 !tenuto!.A2 |!>(! (c4 B)!>)!!p! (.g.g.g) | g4 (3.g.a.b (3.c'.d'.e' | %88
!>(! (d'4 g'2)!>)! z2 |!ff! .D.G.B.G (^F>A).D.c | .B.G.B.d .c.A.^F.D | .G2 .d2 .B2 :| z2 | %93
!ff! .e.b/.g/ .e/.B/.G/.E/ (^D/^F/).A/.B/ (^d/^f/).b/.a/ | %94
 .g.b/.g/ .e/.B/.G/.E/ (^D/^F/).B/.^d/ (^f/d/).b/.a/ | %95
 !tenuto!.g2 !tenuto!.e2 !tenuto!.B2 !tenuto!.E2 |!>(! .G !>!_B2 .c .e !>!g2 ._b!>)! | %97
!ff! a2 .A.F .G.E.c.E | .F.A.c.F .G.E .c>.c | a4 (gfed) | (d2 c2- c_B)(AG) | %101
 !tenuto!.F2 !tenuto!.A2 !tenuto!.G2 !tenuto!._B2 | %102
 !tenuto!.A2 !tenuto!.a2 !breath!!tenuto!.F2!f! a2 | d'4 (c'_bag) | e2 c2 (f2 ga) | _b4 (agfe) | %106
!>(! ^c2 A2 (d2 ef)!>)! |!p! !breath!.e2 ^G4 !tenuto!.d2 | .c !>!e2 .a .c' !>!e'2 .c' | %109
 !tenuto!.a2 !tenuto!.d2 !tenuto!.^f2 !tenuto!.D2 |!<(! .G !>!B2 .d .g !>!b2 .d'!<)! | %111
!mp! !tenuto!.^c'2 !tenuto!.g2 !tenuto!.e2 !tenuto!.a2 | .^f !>!d2 !>!a- a !>!f2 !>!d'- | %113
 d' !>!^c'2 !>!b- b !>!a2 !>!^g- | g !>!=g2"_cresc." !>!^f- f !>!e2 !>!d- | %115
 d !>!^c2 !>!b- b !>!a2 !>!g- | g !>!^f2 !>!a- a !>!=c'2 !>!e'- | e' !>!d'2 !>!c'- c' !>!_b2 .a | %118
!f! !tenuto!.g2 !tenuto!._B2 !tenuto!.d2 !tenuto!.B2 | %119
 !tenuto!.G2 !tenuto!.e2 !tenuto!._B2 !tenuto!.G2 | %120
 !tenuto!.A2 !tenuto!.e2 !tenuto!.^c2 !tenuto!.A2 | %121
 !tenuto!.a2 !tenuto!.g2 !tenuto!.f2 !tenuto!.e2 | !tenuto!.d2 z2 z!mp! (.A.A.A) | %123
 A4!<(! (3.A.B.^c (3.d.e.f!<)! |!>(! (e3 ^c)!>)! A2 z2 | %125
 z!p! !tenuto!.f!tenuto!.f!tenuto!.f f2 (3.f.e.d |!>(! (^c2 A2)!>)! z!<(! (.e.e.e)!<)! | %127
!mf! (^d^f).f.f .e!<(!(.=d.d.d)!<)! |!>(! (^ce).e.e!>)! .d!<(!(.=c.c.c)!<)! | %129
"_dim." (Bd).d.d (dB).B.B | (BG).G.G (GB).B.B |!p! !tenuto!d2 z2 z2!f! .g>.g | e'4 (d'c'ba) | %133
 (a2 g2- ga)(gf) | (eg) c'2 z (^gaf) | d4 z4 | z2!mf! .c>.c f4 | (efed) ^c4 | .d2 .D2 z2 .^F2 | %139
!>(! (GBd^f)!>)!!p! (g2 =f2) | (e4 d4 | c4) (f4 | e4 d4) | (c^GAE) F4 | (EGce) f4 | %145
 e2 z .c"_cresc." c'2 z .E | e2 z .E e2 z2 |"_dim." (E8 | D2)!<(! (^FG AG)!<)!!>(!(g=f)!>)! | %149
!mp! e4 (.e2 .e2) | (g4- (3g^fg (3ag).e | d2 d'2- (3d'(.^f.g (3a^ab) | %152
 c'4 z2!mf! (6:4:6(G/A/G/^F/G/c/) | e4 (e2 d>).c | (a2- (3ag^f (3g).^d.e (3.B.c.A | %155
 (G>B) (d/c/).B/.d/ (f/e/).d/.f/ (a>g) | c4 z!<(! (.c'.c'.c')!<)! | c'4- (3c'.b.d' (3.c'.b.a | %158
!>(! (g3 e)!>)! !breath!.c!<(! (.c'.c'.c')!<)! | c'!>(!(^ga)!>)!!>(!(e (3f)!>)!.c'.b (3(d'c').a | %160
 g4 z4 | (3z .^c'.d' (3(ae').d' .=c'2 .b2 | !tenuto!c'2!f! (g/^f/g/a/ g/f/g/=f/ e/f/e/d/) | %163
 (cd/e/ f/g/a/b/ c'/)(g/^f/g/ a/b/c'/^c'/) | d'2 (!>!F/G/B/G/ !>!D/G/B/G/ !>!F/G/B/d/) | %165
 .fG/A/ B/c/d/e/ f/e/f/^f/ g/f/g/=f/ | (e>g f/e/d/c/ !tenuto!BA/f/ e/d/c/B/) | %167
 (AG/)(e'/ d'/c'/b/a/) (g/f/).d'/.c'/ .b/.a/.g/.f/ | e2!<(! (E/F/G/A/ B/c/d/e/ f/g/a/b/)!<)! | %169
 (!>!c'/g/).e/.c/ (!>!g/e/).c/.G/!<(! (e/c/G/E/ G/c/e/g/)!<)! |!ff! .f !>!A2 .c .f !>!a2 .c' | %171
 f'4 a'4 | (g/a/g/^f/ g/^g/a/^a/!<(! b/c'/^c'/d'/ ^d'/e'/=f'/e'/)!<)! | !trill(!T=d'8({c'd')} | %174
 c'2 z2 z4 |!p! (cGEG) (cBcG) | (eEGc) (.e2 .c2) | (fdBd) !tenuto!.G2 !tenuto!.F2 | (EGcG) e2 z2 | %179
!mp! (cGEG) (cGEG) | (cGEG) c2 z2 | !tenuto!.f2 !tenuto!.B2 !tenuto!.d2 !tenuto!.f2 | %182
 (eEcG) E2 z2 | z (.A.A.A) (.a2 f2- | f2 ec) e2 z2 | (F8 | E)(cBc) (ecGE) | .F2 .f2 .e>.g .f>.g | %188
 .e2!f! !tenuto!.e2 !tenuto!.c2 !tenuto!.G2 | E2 z2 (e4 | f2) !tenuto!.B2 !tenuto!.d2 !tenuto!.g2 | %191
 !tenuto!b2 z2 (B4 | c2)!>(! (cd/e/)!>)! (gf)!>(! (Bc/d/)!>)! | %193
 (fe)!>(! (AB/c/)!>)! d2!>(! (GA/B/)!>)! | c2 z2 z4 | %195
!ff! !tenuto!.E2 !tenuto!.G2 !tenuto!.e2 !tenuto!.E2 | %196
 !tenuto!.F2 !tenuto!.c2 !tenuto!.A2 !tenuto!.F2 | a4 (^d^f/a/ c'/a/f/d/) | e2 z2 z2 !tenuto!c'2 | %199
!<(! (b/c'/d'/c'/ b/a/g/^f/)!<)! !trill(!T=f4({ef)} | (e>g) e2 z!p! (.c.c.c) | %201
 c4 (3.c.d.e (3.f.g.a |!>(! (g4 c'2)!>)! z2 | (3Gce!<(! (g2- gf)(AB)!<)! |!>(! (d4 c2)!>)! z2 | %205
 z (cB_B) (A3 F) |!>(! E(egc') e'2!>)! z2 |!ff! !>!.E.G.c.e !>!.G.B.d.g | !>!.e.c.G.c !>!.B.d.g.B | %209
 .c2 .g2 .e2 |] %210

